SF_Symbols/figure.strengthtraining.traditional.svg

<?xml version="1.0" encoding="UTF-8"?>
<svg xmlns="http://www.w3.org/2000/svg" xmlns:xlink="http://www.w3.org/1999/xlink" width="24" height="24" viewBox="0 0 24 24" version="1.1">
<g id="surface1">
<path style=" stroke:none;fill-rule:nonzero;fill:rgb(100%,100%,100%);fill-opacity:1;" d="M 12 5.15625 C 12.375 5.15625 12.71875 5.066406 13.03125 4.882812 C 13.34375 4.695312 13.589844 4.445312 13.773438 4.132812 C 13.960938 3.820312 14.054688 3.476562 14.054688 3.09375 C 14.054688 2.71875 13.960938 2.378906 13.773438 2.070312 C 13.589844 1.765625 13.34375 1.523438 13.03125 1.339844 C 12.71875 1.152344 12.375 1.058594 12 1.058594 C 11.625 1.058594 11.28125 1.152344 10.96875 1.339844 C 10.664062 1.523438 10.414062 1.765625 10.226562 2.070312 C 10.046875 2.378906 9.957031 2.71875 9.957031 3.09375 C 9.957031 3.476562 10.046875 3.820312 10.226562 4.132812 C 10.414062 4.445312 10.664062 4.695312 10.96875 4.882812 C 11.28125 5.066406 11.625 5.15625 12 5.15625 Z M 9.945312 12.167969 L 14.070312 12.167969 L 14.070312 9.929688 C 14.070312 9.847656 14.117188 9.796875 14.203125 9.777344 C 14.296875 9.753906 14.367188 9.789062 14.417969 9.890625 L 17.035156 15.207031 C 17.152344 15.445312 17.335938 15.605469 17.578125 15.695312 C 17.828125 15.773438 18.070312 15.753906 18.300781 15.628906 C 18.523438 15.515625 18.679688 15.335938 18.757812 15.09375 C 18.847656 14.84375 18.832031 14.601562 18.710938 14.363281 L 15.273438 7.398438 C 15.066406 6.984375 14.773438 6.664062 14.398438 6.429688 C 14.03125 6.199219 13.605469 6.085938 13.125 6.085938 L 10.882812 6.085938 C 10.402344 6.085938 9.976562 6.199219 9.601562 6.429688 C 9.230469 6.664062 8.945312 6.984375 8.738281 7.398438 L 5.296875 14.363281 C 5.179688 14.601562 5.160156 14.84375 5.242188 15.09375 C 5.328125 15.335938 5.484375 15.515625 5.710938 15.628906 C 5.941406 15.753906 6.179688 15.773438 6.421875 15.695312 C 6.671875 15.605469 6.851562 15.445312 6.964844 15.207031 L 9.601562 9.890625 C 9.648438 9.789062 9.71875 9.75 9.804688 9.769531 C 9.898438 9.789062 9.945312 9.835938 9.945312 9.917969 Z M 8.203125 23.726562 C 8.429688 23.777344 8.648438 23.742188 8.867188 23.617188 C 9.09375 23.492188 9.242188 23.269531 9.308594 22.949219 L 10.191406 18.917969 L 12 15.582031 L 13.820312 18.917969 L 14.699219 22.949219 C 14.769531 23.28125 14.921875 23.507812 15.160156 23.625 C 15.398438 23.742188 15.632812 23.773438 15.863281 23.71875 C 16.082031 23.65625 16.261719 23.523438 16.40625 23.316406 C 16.550781 23.117188 16.585938 22.855469 16.519531 22.539062 L 15.628906 18.382812 C 15.628906 18.339844 15.621094 18.304688 15.609375 18.273438 C 15.601562 18.234375 15.589844 18.195312 15.570312 18.160156 L 14.464844 15.019531 L 9.554688 15.019531 L 8.429688 18.160156 C 8.402344 18.222656 8.382812 18.296875 8.371094 18.382812 L 7.480469 22.539062 C 7.414062 22.867188 7.457031 23.136719 7.613281 23.34375 C 7.773438 23.554688 7.972656 23.683594 8.203125 23.726562 Z M 2.726562 16.742188 L 3.273438 16.742188 C 3.460938 16.742188 3.609375 16.683594 3.722656 16.566406 C 3.839844 16.445312 3.898438 16.292969 3.898438 16.105469 L 3.898438 11.070312 C 3.898438 10.882812 3.839844 10.734375 3.722656 10.621094 C 3.609375 10.503906 3.460938 10.445312 3.273438 10.445312 L 2.726562 10.445312 C 2.539062 10.445312 2.386719 10.503906 2.269531 10.621094 C 2.15625 10.734375 2.101562 10.882812 2.101562 11.070312 L 2.101562 16.105469 C 2.101562 16.292969 2.15625 16.445312 2.269531 16.566406 C 2.386719 16.683594 2.539062 16.742188 2.726562 16.742188 Z M 20.71875 16.742188 L 21.273438 16.742188 C 21.460938 16.742188 21.609375 16.683594 21.722656 16.566406 C 21.835938 16.445312 21.890625 16.292969 21.890625 16.105469 L 21.890625 11.070312 C 21.890625 10.882812 21.835938 10.734375 21.722656 10.621094 C 21.609375 10.503906 21.460938 10.445312 21.273438 10.445312 L 20.71875 10.445312 C 20.53125 10.445312 20.378906 10.503906 20.257812 10.621094 C 20.148438 10.734375 20.089844 10.882812 20.089844 11.070312 L 20.089844 16.105469 C 20.089844 16.292969 20.148438 16.445312 20.257812 16.566406 C 20.378906 16.683594 20.53125 16.742188 20.71875 16.742188 Z M 1.332031 14.109375 L 22.667969 14.109375 C 22.8125 14.109375 22.933594 14.058594 23.035156 13.960938 C 23.132812 13.859375 23.183594 13.738281 23.183594 13.59375 C 23.183594 13.449219 23.132812 13.328125 23.035156 13.226562 C 22.933594 13.121094 22.8125 13.070312 22.667969 13.070312 L 1.332031 13.070312 C 1.179688 13.070312 1.054688 13.121094 0.957031 13.226562 C 0.855469 13.328125 0.804688 13.449219 0.804688 13.59375 C 0.804688 13.738281 0.855469 13.859375 0.957031 13.960938 C 1.054688 14.058594 1.179688 14.109375 1.332031 14.109375 Z M 1.332031 14.109375 "/>
</g>
</svg>

<svg xmlns="http://www.w3.org/2000/svg" width="24" height="24"><path style="stroke:none;fill-rule:nonzero;fill:#fff;fill-opacity:1" d="M12 5.156c.375 0 .719-.09 1.031-.273a2.1 2.1 0 0 0 .742-.75c.188-.313.282-.656.282-1.04a1.924 1.924 0 0 0-.282-1.023 2.11 2.11 0 0 0-.742-.73A1.96 1.96 0 0 0 12 1.059c-.375 0-.719.093-1.031.28-.301.18-.559.43-.742.731-.18.309-.27.649-.27 1.024 0 .383.09.726.27 1.039a2.2 2.2 0 0 0 .742.75c.312.183.656.273 1.031.273Zm-2.055 7.012h4.125V9.93c0-.082.047-.133.133-.153.094-.023.164.012.215.114l2.617 5.316c.117.238.3.398.543.488.25.078.492.059.723-.066.219-.11.387-.3.457-.535a.885.885 0 0 0-.047-.73l-3.438-6.966a2.38 2.38 0 0 0-.875-.968c-.367-.23-.793-.344-1.273-.344h-2.242c-.48 0-.906.113-1.281.344-.372.234-.672.57-.864.968l-3.441 6.965a.936.936 0 0 0 .414 1.266c.23.125.469.144.71.066.25-.09.43-.25.544-.488l2.637-5.316c.046-.102.117-.141.203-.121.093.02.14.066.14.148ZM8.203 23.727c.227.05.445.015.664-.11.227-.125.375-.347.442-.668l.882-4.031L12 15.582l1.82 3.336.88 4.031c.07.332.222.559.46.676.238.117.473.148.703.094a.985.985 0 0 0 .543-.403c.145-.199.18-.46.114-.777l-.891-4.156a.339.339 0 0 0-.02-.11.39.39 0 0 0-.039-.113l-1.105-3.14h-4.91L8.43 18.16a.721.721 0 0 0-.059.223l-.89 4.156c-.067.328-.024.598.132.805.16.21.36.34.59.383Zm-5.476-6.985h.546a.586.586 0 0 0 .45-.176.65.65 0 0 0 .175-.46V11.07a.586.586 0 0 0-.175-.449.586.586 0 0 0-.45-.176h-.546a.609.609 0 0 0-.457.176.6.6 0 0 0-.168.45v5.034c0 .188.054.34.168.461.117.118.27.176.457.176Zm17.992 0h.554a.586.586 0 0 0 .45-.176.642.642 0 0 0 .168-.46V11.07a.6.6 0 0 0-.168-.449.586.586 0 0 0-.45-.176h-.554a.633.633 0 0 0-.461.176.62.62 0 0 0-.168.45v5.034c0 .188.058.34.168.461a.65.65 0 0 0 .46.176ZM1.332 14.11h21.336c.137.004.27-.05.367-.148a.517.517 0 0 0 .149-.367.501.501 0 0 0-.149-.367.496.496 0 0 0-.367-.157H1.332a.504.504 0 0 0-.375.157.523.523 0 0 0 0 .738.5.5 0 0 0 .375.144Zm0 0"/></svg>
